dist/assets/images/icons/red-pin.svg

<svg width="50" height="50" viewBox="0 0 50 50" fill="none" xmlns="http://www.w3.org/2000/svg">
<path d="M24.4317 0C14.0763 0 5.68164 8.24659 5.68164 18.4193C5.68164 21.8213 6.35948 25.335 8.30469 27.8675L24.4317 48.8636L40.5586 27.8675C42.3254 25.5673 43.1816 21.5008 43.1816 18.4193C43.1817 8.24659 34.787 0 24.4317 0Z" fill="#EE3333"/>
<path d="M20.1143 14.4315V12.8122C20.1143 12.4408 20.1844 12.0921 20.3248 11.7661C20.4651 11.4347 20.6594 11.1475 20.9066 10.9057C21.1485 10.6585 21.4356 10.4642 21.767 10.3238C22.0931 10.1835 22.4418 10.1133 22.8131 10.1133C23.1165 10.1133 23.4058 10.1608 23.6822 10.2569C23.9585 10.353 24.2111 10.4879 24.4411 10.6617C24.9026 10.3059 25.469 10.1131 26.0518 10.1133C26.5837 10.1109 27.1043 10.2668 27.5474 10.5611C27.9905 10.8554 28.336 11.2749 28.5401 11.7661C28.6804 12.0921 28.7506 12.4408 28.7506 12.8122V14.4315H29.8302C30.1165 14.4315 30.3911 14.5452 30.5935 14.7477C30.796 14.9501 30.9097 15.2247 30.9097 15.511V18.3081C30.4213 17.8962 29.803 17.6702 29.1641 17.6701H26.5915V14.4315H27.6711V12.8122C27.6711 12.5876 27.629 12.376 27.5448 12.1796C27.4226 11.885 27.2151 11.6337 26.9491 11.4579C26.6831 11.2821 26.3706 11.1898 26.0518 11.1929C25.7203 11.1929 25.4224 11.2857 25.1579 11.4714C25.3906 11.8799 25.5126 12.342 25.512 12.8122V17.7263C24.9017 17.8533 24.3538 18.1868 23.9606 18.6705C23.5673 19.1542 23.3527 19.7586 23.3529 20.3819V23.49C23.3529 24.1992 23.6314 24.8815 24.128 25.3878L26.0841 27.386H21.1938C20.337 27.3859 19.5153 27.0462 18.9084 26.4414C18.6122 26.1459 18.3748 25.7968 18.2089 25.4126C18.0383 25.0128 17.952 24.5821 17.9552 24.1474V15.511C17.9552 15.2247 18.0689 14.9501 18.2714 14.7477C18.4738 14.5452 18.7484 14.4315 19.0347 14.4315H20.1143ZM24.4324 14.4315V12.8122C24.4324 12.5876 24.3903 12.376 24.3061 12.1796C24.1839 11.885 23.9765 11.6337 23.7105 11.4579C23.4445 11.2821 23.132 11.1898 22.8131 11.1929C22.5886 11.1929 22.377 11.235 22.1805 11.3192C21.886 11.4414 21.6347 11.6488 21.4589 11.9148C21.2831 12.1808 21.1908 12.4933 21.1938 12.8122V14.4315H24.4324ZM24.8988 24.6332C24.5995 24.3275 24.432 23.9167 24.4324 23.4889V20.3819C24.4322 20.1677 24.4741 19.9555 24.5559 19.7575C24.6377 19.5594 24.7577 19.3795 24.9091 19.2279C25.0605 19.0763 25.2403 18.956 25.4382 18.874C25.6361 18.7919 25.8483 18.7497 26.0626 18.7497H29.1641C29.5991 18.7497 30.0158 18.9235 30.3214 19.2322L33.6755 22.622C34.3168 23.2686 34.3038 24.3158 33.6485 24.9473L30.4671 28.01C30.1578 28.3081 29.7432 28.4718 29.3137 28.4655C28.8842 28.4593 28.4746 28.2835 28.1741 27.9765L24.8988 24.6321V24.6332ZM26.5915 21.7184C26.5915 21.9332 26.6768 22.1391 26.8287 22.2909C26.9805 22.4428 27.1865 22.5281 27.4012 22.5281C27.6159 22.5281 27.8219 22.4428 27.9737 22.2909C28.1255 22.1391 28.2108 21.9332 28.2108 21.7184C28.2108 21.5037 28.1255 21.2977 27.9737 21.1459C27.8219 20.9941 27.6159 20.9088 27.4012 20.9088C27.1865 20.9088 26.9805 20.9941 26.8287 21.1459C26.6768 21.2977 26.5915 21.5037 26.5915 21.7184Z" fill="white"/>
</svg>

<svg width="50" height="50" fill="none" xmlns="http://www.w3.org/2000/svg"><path d="M24.432 0C14.076 0 5.682 8.247 5.682 18.42c0 3.401.677 6.915 2.623 9.447l16.127 20.997 16.127-20.996c1.766-2.3 2.623-6.367 2.623-9.449C43.182 8.247 34.787 0 24.432 0z" fill="#E33"/><path d="M20.114 14.431v-1.619c0-.371.07-.72.21-1.046.141-.331.335-.618.583-.86a2.62 2.62 0 01.86-.582c.326-.14.675-.21 1.046-.21.303 0 .593.047.87.143.276.096.528.23.758.405a2.681 2.681 0 014.099 1.104c.14.326.21.675.21 1.046v1.62h1.08a1.08 1.08 0 011.08 1.079v2.797a2.708 2.708 0 00-1.746-.638h-2.573v-3.239h1.08v-1.619a1.59 1.59 0 00-.126-.632 1.6 1.6 0 00-1.493-.987c-.332 0-.63.093-.894.278.233.409.355.871.354 1.341v4.914a2.711 2.711 0 00-2.16 2.656v3.108c0 .71.28 1.392.776 1.898l1.956 1.998h-4.89c-.857 0-1.679-.34-2.286-.945a3.303 3.303 0 01-.7-1.028c-.17-.4-.256-.83-.253-1.266v-8.636a1.08 1.08 0 011.08-1.08h1.08zm4.318 0v-1.619a1.59 1.59 0 00-.126-.632 1.6 1.6 0 00-1.493-.987 1.6 1.6 0 00-.633.126 1.6 1.6 0 00-.986 1.493v1.62h3.238zm.467 10.202a1.633 1.633 0 01-.467-1.144v-3.107a1.631 1.631 0 011.63-1.632h3.102c.435 0 .852.174 1.157.482l3.354 3.39a1.633 1.633 0 01-.026 2.325l-3.182 3.063a1.628 1.628 0 01-2.293-.034L24.9 24.633v.001zm1.692-2.915a.81.81 0 101.619 0 .81.81 0 00-1.619 0z" fill="#fff"/></svg>
